X:120
T:The Marino Waltz
R:waltz
C:John Sheahan of The Dubliners
S:John Gallagher
N:John Gallagher slides up to the first g's and from the f to the e in
N:the first part of the tune, and from F sharp to F nat. in the second part
N:of the tune. John Gallagher is a great fiddler from Adara, Co. Donegal.
N:He said that this waltz was the most popular waltz in Ireland at that time
N:(when he played it on the tape).
A:Not a Donegal tune
D:The Dubliners, "Celebration"
Z:Transcribed by Larry Sanger
M:3/4
K:G
|:Jg2 d2 B2|F4 B2|E4 c2|D6|C2 D2 E>G-|F2 D2 A2|G2 D2 B2|A6|
Jg2 d2 B2|F4 f2-|Je2 d2 c2|E4 e2|d2 c3 A|F4 B2|G6|1 Gd ^cd ef:|2 G6||
|:D2 E2 F2|G2 A2 _B2|=B6|F4- J=F2|E6|c4 E2|G4 F>E|F6|
C2 D2 E>G-|F2 D2 A2|G2 D2 d2|e4 d2|^c2 A2 F2|D4 B2|G6|1 G6:|2 Gd ^cd ef||
